package/converter/svg/duotone/signal-slash.svg

<svg xmlns="http://www.w3.org/2000/svg" viewBox="0 0 640 512"><!-- Font Awesome Pro 6.0.0-alpha2 by @fontawesome - https://fontawesome.com License - https://fontawesome.com/license (Commercial License) --><defs><style>.fa-secondary{opacity:.4}</style></defs><path d="M192 287.996C174.326 287.996 160 302.322 160 319.994V479.992C160 497.664 174.326 511.992 192 511.992C209.672 511.992 224 497.664 224 479.992V319.994C224 302.322 209.672 287.996 192 287.996ZM288 480C288 497.672 302.326 512 320 512S352 497.672 352 480V372.574L288 322.414V480ZM64 383.994C46.326 383.994 32 398.32 32 415.994V479.992C32 497.664 46.326 511.992 64 511.992C81.672 511.992 96 497.664 96 479.992V415.994C96 398.32 81.674 383.994 64 383.994ZM320 192C309.348 192 300.371 197.547 294.555 205.551L352 250.576V224C352 206.326 337.674 192 320 192ZM575.998 0C558.324 0 543.998 14.326 543.998 32V401.059L607.998 451.221V32C607.998 14.326 593.672 0 575.998 0ZM416 480C416 497.672 430.326 512 448 512S480 497.672 480 480V472.898L416 422.736V480ZM448 96C430.326 96 416 110.326 416 128V300.736L480 350.898V128C480 110.326 465.674 96 448 96Z" class="fa-secondary"/><path d="M630.811 469.102L38.814 5.109C34.407 1.672 29.189 0 24.032 0C16.907 0 9.845 3.156 5.126 9.187C-3.061 19.625 -1.249 34.718 9.189 42.89L601.186 506.883C611.686 515.086 626.749 513.211 634.874 502.805C643.061 492.367 641.249 477.274 630.811 469.102Z" class="fa-primary"/></svg>

<svg xmlns="http://www.w3.org/2000/svg" viewBox="0 0 640 512"><!--! Font Awesome Pro 6.6.0 by @fontawesome - https://fontawesome.com License - https://fontawesome.com/license (Commercial License) Copyright 2024 Fonticons, Inc. --><defs><style>.fa-secondary{opacity:.4}</style></defs><path class="fa-secondary" d="M32 416l0 64c0 17.7 14.3 32 32 32s32-14.3 32-32l0-64c0-17.7-14.3-32-32-32s-32 14.3-32 32zm128-96l0 160c0 17.7 14.3 32 32 32s32-14.3 32-32l0-160c0-17.7-14.3-32-32-32s-32 14.3-32 32zm128 2.9L288 480c0 17.7 14.3 32 32 32s32-14.3 32-32l0-106.7-64-50.4zm6.1-117.7c19.3 15.1 38.6 30.3 57.9 45.4l0-26.6c0-17.7-14.3-32-32-32c-10.7 0-20.1 5.2-25.9 13.2zM416 128l0 172.7c21.3 16.7 42.7 33.4 64 50.2L480 128c0-17.7-14.3-32-32-32s-32 14.3-32 32zm0 295.8l0 56.2c0 17.7 14.3 32 32 32s32-14.3 32-32l0-5.8-64-50.4zM544 32l0 369.1c21.3 16.7 42.7 33.4 64 50.2L608 32c0-17.7-14.3-32-32-32s-32 14.3-32 32z"/><path class="fa-primary" d="M5.1 9.2C13.3-1.2 28.4-3.1 38.8 5.1l592 464c10.4 8.2 12.3 23.3 4.1 33.7s-23.3 12.3-33.7 4.1L9.2 42.9C-1.2 34.7-3.1 19.6 5.1 9.2z"/></svg>
